src/assets/2012.svg

<svg width="2534" height="2362" fill="none" xmlns="http://www.w3.org/2000/svg">
  <g filter="url(#filter0_d)">
    <path d="M1690.2 769.526c-38.67-36.495-6.84-195.322-138.62-230.748C1375.77 491.512 311.399.701 311.399.701L25.676 682.483s601.061 658.477 643.72 702.767c42.659 44.29 233.133 172.26 358.894 138.22 125.76-34.05 148.41-71.16 148.41-27.76 0 43.41-98.71 158.84-25.9 231.18s206.23 78.05 301.1 118.9c94.87 40.85-108.83 376.11 272.28 433.69 381.11 57.58 305.72-232.48 332.93-277.58 27.21-45.11 137.63 7.5 180.28-16.33 42.66-23.83 36.94-115.16 86.41-148.68 49.47-33.51 64.95-17.61 131.29-38.67 66.33-21.05 51.62-174.98 46.36-183.91-5.25-8.93-39.66-90.24-49.47-108.28-9.63-17.73-14.03-28.83-25.2-56.91l-.6-1.53c-11.62-29.22 14.38-58.09 40.86-110.01 26.47-51.91 75.03-112.19 5.16-170.58-69.87-58.4-166.86 18.87-208.62-39.11-41.76-57.98 6.34-98.83-86.46-135.781-92.8-36.954-240.03 63.431-313.59 51.331-73.56-12.09 3.35-120.412-22.89-155.647-26.24-35.235-111.77-81.773-150.44-118.267z" fill="#fff"/>
  </g>
  <defs>
    <filter id="filter0_d" x=".676" y=".701" width="2532.58" height="2360.31" filterUnits="userSpaceOnUse" color-interpolation-filters="sRGB">
      <feFlood flood-opacity="0" result="BackgroundImageFix"/>
      <feColorMatrix in="SourceAlpha" values="0 0 0 0 0 0 0 0 0 0 0 0 0 0 0 0 0 0 127 0"/>
      <feOffset dy="49"/>
      <feGaussianBlur stdDeviation="12.5"/>
      <feColorMatrix values="0 0 0 0 0 0 0 0 0 0 0 0 0 0 0 0 0 0 0.25 0"/>
      <feBlend in2="BackgroundImageFix" result="effect1_dropShadow"/>
      <feBlend in="SourceGraphic" in2="effect1_dropShadow" result="shape"/>
    </filter>
  </defs>
</svg>

<svg width="2534" height="2362" viewBox="0 0 2534 2362" fill="none" xmlns="http://www.w3.org/2000/svg">
<g filter="url(#filter0_d)">
<path d="M1690.2 769.526C1651.53 733.031 1683.36 574.204 1551.58 538.778C1375.77 491.512 311.399 0.701172 311.399 0.701172L25.6758 682.483C25.6758 682.483 626.737 1340.96 669.396 1385.25C712.055 1429.54 902.529 1557.51 1028.29 1523.47C1154.05 1489.42 1176.7 1452.31 1176.7 1495.71C1176.7 1539.12 1077.99 1654.55 1150.8 1726.89C1223.61 1799.23 1357.03 1804.94 1451.9 1845.79C1546.77 1886.64 1343.07 2221.9 1724.18 2279.48C2105.29 2337.06 2029.9 2047 2057.11 2001.9C2084.32 1956.79 2194.74 2009.4 2237.39 1985.57C2280.05 1961.74 2274.33 1870.41 2323.8 1836.89C2373.27 1803.38 2388.75 1819.28 2455.09 1798.22C2521.42 1777.17 2506.71 1623.24 2501.45 1614.31C2496.2 1605.38 2461.79 1524.07 2451.98 1506.03C2442.35 1488.3 2437.95 1477.2 2426.78 1449.12L2426.18 1447.59C2414.56 1418.37 2440.56 1389.5 2467.04 1337.58C2493.51 1285.67 2542.07 1225.39 2472.2 1167C2402.33 1108.6 2305.34 1185.87 2263.58 1127.89C2221.82 1069.91 2269.92 1029.06 2177.12 992.109C2084.32 955.155 1937.09 1055.54 1863.53 1043.44C1789.97 1031.35 1866.88 923.028 1840.64 887.793C1814.4 852.558 1728.87 806.02 1690.2 769.526Z" fill="white"/>
</g>
<defs>
<filter id="filter0_d" x="0.675781" y="0.701172" width="2532.58" height="2360.31" filterUnits="userSpaceOnUse" color-interpolation-filters="sRGB">
<feFlood flood-opacity="0" result="BackgroundImageFix"/>
<feColorMatrix in="SourceAlpha" type="matrix" values="0 0 0 0 0 0 0 0 0 0 0 0 0 0 0 0 0 0 127 0"/>
<feOffset dy="49"/>
<feGaussianBlur stdDeviation="12.5"/>
<feColorMatrix type="matrix" values="0 0 0 0 0 0 0 0 0 0 0 0 0 0 0 0 0 0 0.25 0"/>
<feBlend mode="normal" in2="BackgroundImageFix" result="effect1_dropShadow"/>
<feBlend mode="normal" in="SourceGraphic" in2="effect1_dropShadow" result="shape"/>
</filter>
</defs>
</svg>
